src/Assets/HerVon M.svg

<svg width="66" height="23" viewBox="0 0 66 23" fill="none" xmlns="http://www.w3.org/2000/svg">
<path d="M4.95039 19.88C5.33706 19.88 5.74372 19.4467 6.17039 18.58C6.61039 17.7267 6.99039 16.68 7.31039 15.44C5.67039 17.7067 4.85039 19.1267 4.85039 19.7C4.85039 19.7933 4.88372 19.8533 4.95039 19.88ZM7.15039 11.1C7.15039 12.46 7.28372 13.58 7.55039 14.46C7.85706 13.0867 8.01039 11.9733 8.01039 11.12C8.01039 10.2533 7.85706 9.82 7.55039 9.82C7.28372 9.82 7.15039 10.2467 7.15039 11.1ZM1.37039 17.78L1.65039 17.62C1.69039 17.62 1.71039 17.64 1.71039 17.68C1.71039 17.7867 1.54372 17.96 1.21039 18.2C0.877057 18.44 0.617057 18.56 0.430391 18.56C0.243724 18.56 0.150391 18.4667 0.150391 18.28C0.150391 17.5733 1.11706 15.9133 3.05039 13.3C4.99706 10.6867 6.63706 8.66 7.97039 7.22L8.01039 7.14C8.01039 7.11333 7.99039 7.1 7.95039 7.1C7.43039 7.44667 6.34372 7.98667 4.69039 8.72C3.03706 9.44 1.85039 9.8 1.13039 9.8C0.730391 9.8 0.530391 9.66667 0.530391 9.4C0.530391 9.32 0.583724 9.21333 0.690391 9.08C0.810391 8.93333 0.890391 8.86 0.930391 8.86C0.983724 8.86 1.05706 8.90667 1.15039 9C1.24372 9.08 1.53039 9.12 2.01039 9.12C2.50372 9.12 3.33039 8.90667 4.49039 8.48C5.65039 8.04 6.85706 7.46 8.11039 6.74C8.53706 6.48667 8.89039 6.23333 9.17039 5.98C9.45039 5.72667 9.77039 5.40667 10.1304 5.02C10.5037 4.63333 10.7437 4.38667 10.8504 4.28C10.9704 4.16 11.1837 3.93333 11.4904 3.6C11.8104 3.25333 12.0637 2.98667 12.2504 2.8C12.7704 2.30667 13.1971 2.06 13.5304 2.06C13.6371 2.06 13.6904 2.10667 13.6904 2.2C13.6904 2.73333 12.8304 3.62667 11.1104 4.88C10.4571 5.37333 10.0771 5.68 9.97039 5.8C8.46372 7.45333 6.65039 9.68667 4.53039 12.5C2.41039 15.3 1.34372 17.04 1.33039 17.72C1.33039 17.76 1.34372 17.78 1.37039 17.78ZM11.5704 15L10.1304 15.88C9.62372 16.2 9.17039 16.36 8.77039 16.36C8.38372 16.36 8.03706 16.22 7.73039 15.94C7.35706 17.1267 6.90372 18.12 6.37039 18.92C5.85039 19.72 5.33706 20.12 4.83039 20.12C4.65706 20.12 4.57039 20.04 4.57039 19.88C4.57039 19.04 5.43706 17.42 7.17039 15.02C6.82372 14.18 6.65039 12.9933 6.65039 11.46C6.65039 10.94 6.73039 10.5067 6.89039 10.16C7.05039 9.81333 7.27039 9.64 7.55039 9.64C8.19039 9.64 8.51039 10.3067 8.51039 11.64C8.51039 12.2 8.45039 12.8 8.33039 13.44C10.1837 11.0267 12.2971 8.51333 14.6704 5.9C17.0437 3.28667 18.6304 1.68667 19.4304 1.1C19.6171 0.979999 19.8437 0.919999 20.1104 0.919999C20.3771 0.919999 20.5104 0.966666 20.5104 1.06C20.5104 1.12667 20.4837 1.18667 20.4304 1.24C20.3637 1.30667 20.2571 1.40667 20.1104 1.54C19.9637 1.67333 19.8371 1.79333 19.7304 1.9C15.0637 6.56667 11.2904 10.6133 8.41039 14.04L8.17039 14.34C8.15706 14.38 8.12372 14.5267 8.07039 14.78C8.01706 15.02 7.97039 15.2 7.93039 15.32C8.21039 15.8 8.57039 16.04 9.01039 16.04C9.26372 16.04 9.51039 15.9733 9.75039 15.84C10.1504 15.6133 10.6237 15.32 11.1704 14.96C11.2637 14.9067 11.3637 14.88 11.4704 14.88C11.5771 14.88 11.6304 14.8933 11.6304 14.92C11.6304 14.9467 11.6104 14.9733 11.5704 15ZM14.4677 12.86C14.4677 12.82 14.4411 12.8 14.3877 12.8C14.0277 12.8 13.4677 13.1133 12.7077 13.74C11.9477 14.3667 11.2877 15.0533 10.7277 15.8C11.3944 15.5867 12.1811 15.1067 13.0877 14.36C14.0077 13.6133 14.4677 13.1133 14.4677 12.86ZM9.84773 17.58C9.84773 17.7533 9.9144 17.84 10.0477 17.84C10.2077 17.84 10.5677 17.7333 11.1277 17.52C11.6877 17.2933 12.1477 17.0733 12.5077 16.86L14.4677 15.62L14.4877 15.88C13.0877 16.8133 12.0411 17.4067 11.3477 17.66C10.6677 17.9133 10.2144 18.04 9.98773 18.04C9.6144 18.04 9.42773 17.8067 9.42773 17.34C9.42773 16.7133 9.6544 16.0867 10.1077 15.46C10.5611 14.8333 11.0877 14.32 11.6877 13.92C12.3011 13.52 12.8877 13.1933 13.4477 12.94C14.0211 12.6867 14.4544 12.56 14.7477 12.56C15.0411 12.56 15.1877 12.66 15.1877 12.86C15.1877 13.3533 14.6011 13.9533 13.4277 14.66C12.2677 15.3667 11.3011 15.8333 10.5277 16.06C10.0744 16.7133 9.84773 17.22 9.84773 17.58ZM20.5432 15.02L20.7032 15.2C20.0899 15.5733 19.5899 15.8867 19.2032 16.14C18.8165 16.3933 18.5232 16.52 18.3232 16.52C18.0299 16.52 17.8832 16.3933 17.8832 16.14C17.8832 15.9533 17.9832 15.5867 18.1832 15.04C18.3965 14.48 18.5432 14.0867 18.6232 13.86L18.5632 13.8C18.5099 13.8 18.4499 13.8267 18.3832 13.88C17.0365 14.96 16.1632 15.6867 15.7632 16.06C15.3765 16.4333 14.9965 16.8333 14.6232 17.26C14.2632 17.6867 14.0632 17.92 14.0232 17.96C13.9965 18 13.9765 18.0267 13.9632 18.04C13.9232 18.08 13.7899 18.1 13.5632 18.1C13.3232 18.1 13.2032 18.08 13.2032 18.04C13.2299 18 13.3965 17.8133 13.7032 17.48C14.4499 16.6667 15.1232 15.8867 15.7232 15.14L15.1432 15.48C14.5299 15.8533 14.0832 16.1333 13.8032 16.32L13.7232 16.1L14.9832 15.3C15.4365 15.0067 15.8232 14.7 16.1432 14.38C16.4765 14.06 16.7032 13.8 16.8232 13.6C16.9432 13.4 17.0499 13.2333 17.1432 13.1C17.2365 12.9667 17.3232 12.9 17.4032 12.9C17.4832 12.9 17.6099 12.9467 17.7832 13.04C17.7832 13.1733 17.6765 13.4067 17.4632 13.74C17.2499 14.0733 17.0365 14.3733 16.8232 14.64L16.5032 15.02C16.5032 15.0467 16.5099 15.06 16.5232 15.06C16.5632 15.06 16.6099 15.04 16.6632 15C16.7165 14.9467 16.9365 14.76 17.3232 14.44C17.7232 14.1067 18.0699 13.8267 18.3632 13.6C18.6565 13.36 18.9899 13.1333 19.3632 12.92C19.7499 12.7067 20.0299 12.6 20.2032 12.6C20.3765 12.6 20.4632 12.64 20.4632 12.72C20.4632 12.8267 20.1365 13.0533 19.4832 13.4C19.3365 13.48 19.1099 13.8667 18.8032 14.56C18.5099 15.24 18.3632 15.74 18.3632 16.06C18.3632 16.1267 18.4232 16.16 18.5432 16.16C18.6765 16.16 18.9299 16.04 19.3032 15.8L20.5432 15.02ZM25.4609 9.92C24.8875 10.7333 23.9609 11.5933 22.6809 12.5C21.4142 13.4067 20.3609 13.86 19.5209 13.86C19.2942 13.86 19.1275 13.8 19.0209 13.68C18.9275 13.5467 18.8809 13.3333 18.8809 13.04C18.8809 12.3067 19.1675 11.3867 19.7409 10.28C20.3275 9.16 21.0675 8.06667 21.9609 7C22.8542 5.93333 23.9275 5.02 25.1809 4.26C26.4475 3.48667 27.6742 3.1 28.8609 3.1C29.6742 3.1 30.0809 3.6 30.0809 4.6C30.0809 5.26667 29.7342 6.27333 29.0409 7.62C28.3475 8.96667 27.5809 10.26 26.7409 11.5C25.9009 12.7267 25.1342 13.8467 24.4409 14.86C23.7475 15.86 23.4009 16.3867 23.4009 16.44C23.7209 16.0667 24.4809 15.2733 25.6809 14.06C26.8942 12.8467 27.9675 11.8 28.9009 10.92C29.8475 10.04 30.9475 9.06667 32.2009 8C33.4675 6.92 34.6409 5.99333 35.7209 5.22C36.8009 4.44667 37.8875 3.8 38.9809 3.28C40.0742 2.74667 40.9942 2.48 41.7409 2.48C41.9942 2.48 42.1209 2.53333 42.1209 2.64C42.1209 2.77333 41.7475 3.08 41.0009 3.56C40.2675 4.02667 39.8742 4.26 39.8209 4.26C39.7675 4.26 39.7409 4.24 39.7409 4.2C39.7409 4.16 39.7875 4.08667 39.8809 3.98C39.9875 3.87333 40.0409 3.80667 40.0409 3.78C40.0409 3.75333 40.0209 3.74 39.9809 3.74C39.1675 3.74 37.6409 4.52667 35.4009 6.1C33.1609 7.67333 30.7275 9.66 28.1009 12.06C25.4875 14.46 23.2942 16.7333 21.5209 18.88C21.2409 19.2267 20.7942 19.4 20.1809 19.4C20.0742 19.4 20.0209 19.38 20.0209 19.34C20.0209 19.3 20.1009 19.2067 20.2609 19.06C20.4209 18.9133 20.8675 18.36 21.6009 17.4C22.3342 16.44 22.8075 15.7867 23.0209 15.44C23.2475 15.08 23.7675 14.3067 24.5809 13.12C25.3942 11.9333 26.0875 10.8933 26.6609 10C27.2475 9.10667 27.8475 8.06 28.4609 6.86C29.0875 5.66 29.4675 4.68667 29.6009 3.94C29.5742 3.48667 29.3142 3.26 28.8209 3.26C28.1009 3.26 27.1742 3.62667 26.0409 4.36C24.9209 5.09333 23.8542 5.96667 22.8409 6.98C21.8275 7.99333 20.9542 9.08 20.2209 10.24C19.4875 11.3867 19.1209 12.3333 19.1209 13.08C19.1209 13.4667 19.2875 13.66 19.6209 13.66C20.4075 13.66 21.3142 13.2867 22.3409 12.54C23.3809 11.78 24.3675 10.8533 25.3009 9.76C25.3675 9.68 25.4275 9.64 25.4809 9.64C25.5342 9.64 25.5609 9.66667 25.5609 9.72C25.5609 9.77333 25.5275 9.84 25.4609 9.92ZM31.7854 13.5V13.48C31.5187 13.6133 31.2254 13.9333 30.9054 14.44C30.5854 14.9333 30.3987 15.36 30.3454 15.72C31.3054 14.7333 31.7854 13.9933 31.7854 13.5ZM27.5254 17.68C28.0321 17.68 28.8521 17.1467 29.9854 16.08V15.98C29.9854 15.5667 30.1854 15.06 30.5854 14.46C30.9987 13.8467 31.3721 13.4533 31.7054 13.28C31.6654 13.24 31.6121 13.22 31.5454 13.22C31.0521 13.22 30.2321 13.7867 29.0854 14.92C27.9521 16.0533 27.3854 16.9333 27.3854 17.56C27.3854 17.64 27.4321 17.68 27.5254 17.68ZM26.9054 17.4C26.9054 16.4 27.4787 15.4067 28.6254 14.42C29.7854 13.42 30.7454 12.92 31.5054 12.92C31.8787 12.92 32.0654 13.0867 32.0654 13.42C32.0654 14.3667 31.5587 15.3133 30.5454 16.26C30.6254 16.2867 30.7054 16.3 30.7854 16.3C31.1587 16.3 31.6987 16.0667 32.4054 15.6L32.5054 15.8C31.6521 16.3733 31.0054 16.66 30.5654 16.66C30.3921 16.66 30.2654 16.6267 30.1854 16.56C29.6654 16.9867 29.1187 17.3333 28.5454 17.6C27.9721 17.8667 27.5521 18 27.2854 18C27.0321 18 26.9054 17.8 26.9054 17.4ZM32.1529 16.04L32.0929 15.8L32.7529 15.38C33.7529 14.7133 34.3796 14.2467 34.6329 13.98C34.8862 13.7 35.0396 13.5267 35.0929 13.46C35.4396 13.02 35.6329 12.7733 35.6729 12.72C35.8329 12.7733 35.9129 12.9333 35.9129 13.2C35.6462 13.5867 35.2862 14.0533 34.8329 14.6C34.3796 15.1333 34.0062 15.58 33.7129 15.94C33.4196 16.2867 33.2729 16.4867 33.2729 16.54C33.2729 16.5933 33.2796 16.62 33.2929 16.62C33.3196 16.62 33.4196 16.5533 33.5929 16.42C33.7796 16.2733 34.2729 15.92 35.0729 15.36C36.6862 14.24 37.7129 13.5333 38.1529 13.24C38.5929 12.9333 38.8729 12.78 38.9929 12.78C39.1262 12.78 39.1929 12.9133 39.1929 13.18C39.1929 13.4333 38.9929 13.82 38.5929 14.34C38.1929 14.86 37.7529 15.34 37.2729 15.78C35.9929 16.9533 35.3529 17.6 35.3529 17.72C35.3529 17.7333 35.3796 17.74 35.4329 17.74C35.5929 17.74 36.4929 17.2133 38.1329 16.16L38.9529 15.62L38.9729 15.88C36.8262 17.3067 35.5196 18.02 35.0529 18.02C34.9729 18.02 34.9329 17.98 34.9329 17.9C34.9329 17.4067 35.2396 16.8267 35.8529 16.16C36.4796 15.48 37.0996 14.8733 37.7129 14.34C38.3262 13.7933 38.6329 13.4333 38.6329 13.26C38.6329 13.2333 38.6196 13.22 38.5929 13.22C38.2062 13.4067 37.3062 14 35.8929 15C34.4929 15.9867 33.6729 16.5667 33.4329 16.74C32.8062 17.2067 32.4729 17.4533 32.4329 17.48C32.4062 17.4933 32.3396 17.56 32.2329 17.68C31.9929 17.9333 31.7729 18.06 31.5729 18.06C31.2529 18.0333 31.0862 18.0133 31.0729 18C31.0596 17.9867 31.0529 17.9733 31.0529 17.96C31.0529 17.9467 31.1662 17.82 31.3929 17.58C31.6062 17.3533 31.8196 17.1267 32.0329 16.9C32.7396 16.1133 33.2262 15.5533 33.4929 15.22L32.1529 16.04ZM43.2099 17.9C42.9033 17.9 42.7233 17.82 42.6699 17.66C42.6699 17.4867 43.2433 16.7133 44.3899 15.34C45.5366 13.9667 46.7966 12.48 48.1699 10.88C49.5433 9.26667 50.8033 7.63333 51.9499 5.98C53.0966 4.31333 53.6699 3.14 53.6699 2.46C53.6699 2.03333 53.4499 1.82 53.0099 1.82C52.2899 1.82 51.5299 2.01333 50.7299 2.4C49.9299 2.77333 49.1766 3.26667 48.4699 3.88C47.7766 4.48 47.1033 5.15333 46.4499 5.9C45.7966 6.64667 45.2433 7.38667 44.7899 8.12C43.7633 9.72 43.2499 10.8867 43.2499 11.62C43.2499 12.0067 43.4099 12.2 43.7299 12.2C44.1699 12.2 44.8833 11.8267 45.8699 11.08C46.8566 10.3333 47.7299 9.58667 48.4899 8.84L49.6299 7.74C49.6566 7.71333 49.6966 7.7 49.7499 7.7C49.8166 7.7 49.8499 7.72 49.8499 7.76L49.8099 7.84C49.6899 7.96 49.5233 8.12667 49.3099 8.34C49.1099 8.55333 48.7233 8.92667 48.1499 9.46C47.5766 9.98 47.0366 10.4467 46.5299 10.86C46.0366 11.26 45.5033 11.6267 44.9299 11.96C44.3566 12.2933 43.9033 12.46 43.5699 12.46C43.0899 12.46 42.8499 12.1733 42.8499 11.6C42.8499 11.0133 43.0166 10.3067 43.3499 9.48C43.6966 8.64 44.1899 7.76667 44.8299 6.86C45.4833 5.95333 46.2099 5.1 47.0099 4.3C47.8233 3.5 48.7566 2.84 49.8099 2.32C50.8633 1.8 51.9099 1.54 52.9499 1.54C53.2166 1.54 53.4766 1.64 53.7299 1.84C53.9833 2.02667 54.1099 2.32 54.1099 2.72C54.1099 3.10667 53.9633 3.62 53.6699 4.26C53.3899 4.9 52.9633 5.64667 52.3899 6.5C51.8166 7.35333 51.2833 8.12667 50.7899 8.82C50.3099 9.5 49.6633 10.3333 48.8499 11.32C48.0499 12.3067 47.4899 12.9933 47.1699 13.38C46.8499 13.7533 46.3766 14.3133 45.7499 15.06C45.7633 15.0733 45.8233 15.04 45.9299 14.96C51.6099 9.81333 54.8166 6.91333 55.5499 6.26C56.2833 5.60667 56.6766 5.24667 56.7299 5.18C56.7966 5.11333 56.8433 5.06667 56.8699 5.04C56.9766 4.93333 57.1099 4.88 57.2699 4.88C57.4433 4.88 57.5299 4.96 57.5299 5.12C57.5299 5.52 56.9433 6.53333 55.7699 8.16C54.6099 9.78667 53.4499 11.34 52.2899 12.82C51.1299 14.3 50.5499 15.0667 50.5499 15.12L50.5699 15.14C51.3833 14.4333 53.0499 12.9067 55.5699 10.56C58.1033 8.2 60.3099 6.16667 62.1899 4.46C64.0833 2.75333 65.1366 1.9 65.3499 1.9C65.4966 1.9 65.5699 1.99333 65.5699 2.18C65.5699 2.54 65.2633 3.18 64.6499 4.1C64.0499 5.02 62.9699 6.46667 61.4099 8.44C61.3433 8.52 60.2633 9.81333 58.1699 12.32C53.5566 17.8267 51.2499 21.0067 51.2499 21.86C51.2499 21.9133 51.2899 21.94 51.3699 21.94C51.4633 21.94 51.7966 21.7867 52.3699 21.48C52.9566 21.1867 53.3633 20.94 53.5899 20.74C53.8166 20.54 53.9499 20.44 53.9899 20.44C54.0299 20.44 54.0499 20.4667 54.0499 20.52C54.0499 20.5867 54.0366 20.6333 54.0099 20.66C53.8633 20.8467 53.4099 21.1533 52.6499 21.58C51.9033 22.0067 51.4299 22.22 51.2299 22.22C51.0299 22.22 50.9299 22.1333 50.9299 21.96C50.9299 21.12 51.6433 19.64 53.0699 17.52C55.3099 14.1733 58.0233 10.74 61.2099 7.22C61.6099 6.76667 62.3499 5.87333 63.4299 4.54C64.5099 3.20667 65.0499 2.48667 65.0499 2.38C65.0499 2.35333 65.0433 2.34 65.0299 2.34C64.9499 2.34 62.4833 4.56667 57.6299 9.02C52.7899 13.4733 49.6566 16.38 48.2299 17.74C48.0699 17.9 47.9166 17.98 47.7699 17.98C47.3833 17.98 47.1899 17.9333 47.1899 17.84C47.1899 17.7467 47.2833 17.5867 47.4699 17.36C47.6566 17.12 48.6566 15.8933 50.4699 13.68C54.7366 8.46667 56.8699 5.73333 56.8699 5.48L56.8499 5.46C56.7299 5.51333 54.9833 7.07333 51.6099 10.14C46.6766 14.5933 43.8766 17.18 43.2099 17.9Z" fill="#E6E6E6"/>
</svg>

<svg xmlns="http://www.w3.org/2000/svg" fill="none" width="66" height="23" viewBox="0 0 66 23"><path d="M4.95 19.88c.387 0 .794-.433 1.22-1.3.44-.853.82-1.9 1.14-3.14-1.64 2.267-2.46 3.687-2.46 4.26 0 .093.034.153.1.18Zm2.2-8.78c0 1.36.134 2.48.4 3.36.307-1.373.46-2.487.46-3.34 0-.867-.153-1.3-.46-1.3-.266 0-.4.427-.4 1.28Zm-5.78 6.68.28-.16c.04 0 .06.02.06.06 0 .107-.166.28-.5.52-.333.24-.593.36-.78.36-.186 0-.28-.093-.28-.28 0-.707.967-2.367 2.9-4.98 1.947-2.613 3.587-4.64 4.92-6.08l.04-.08c0-.027-.02-.04-.06-.04-.52.347-1.606.887-3.26 1.62-1.653.72-2.84 1.08-3.56 1.08-.4 0-.6-.133-.6-.4 0-.08.054-.187.16-.32.12-.147.2-.22.24-.22.054 0 .127.047.22.14.094.08.38.12.86.12.494 0 1.32-.213 2.48-.64 1.16-.44 2.367-1.02 3.62-1.74a6.62 6.62 0 0 0 1.06-.76c.28-.253.6-.573.96-.96a78.3 78.3 0 0 1 .72-.74c.12-.12.334-.347.64-.68.32-.347.574-.613.76-.8.52-.493.947-.74 1.28-.74.107 0 .16.047.16.14 0 .533-.86 1.427-2.58 2.68-.653.493-1.033.8-1.14.92-1.506 1.653-3.32 3.887-5.44 6.7-2.12 2.8-3.186 4.54-3.2 5.22 0 .04.014.06.04.06ZM11.57 15l-1.44.88c-.506.32-.96.48-1.36.48-.386 0-.733-.14-1.04-.42-.373 1.187-.826 2.18-1.36 2.98-.52.8-1.033 1.2-1.54 1.2-.173 0-.26-.08-.26-.24 0-.84.867-2.46 2.6-4.86-.346-.84-.52-2.027-.52-3.56 0-.52.08-.953.24-1.3.16-.347.38-.52.66-.52.64 0 .96.667.96 2 0 .56-.06 1.16-.18 1.8 1.854-2.413 3.967-4.927 6.34-7.54 2.374-2.613 3.96-4.213 4.76-4.8.187-.12.414-.18.68-.18.267 0 .4.047.4.14a.249.249 0 0 1-.08.18 8.567 8.567 0 0 1-.32.3c-.146.133-.273.253-.38.36-4.666 4.667-8.44 8.713-11.32 12.14l-.24.3c-.013.04-.046.187-.1.44-.053.24-.1.42-.14.54.28.48.64.72 1.08.72.254 0 .5-.067.74-.2.4-.227.874-.52 1.42-.88a.595.595 0 0 1 .3-.08c.107 0 .16.013.16.04 0 .027-.02.053-.06.08Zm2.898-2.14c0-.04-.027-.06-.08-.06-.36 0-.92.313-1.68.94a12.01 12.01 0 0 0-1.98 2.06c.666-.213 1.453-.693 2.36-1.44.92-.747 1.38-1.247 1.38-1.5Zm-4.62 4.72c0 .173.066.26.2.26.16 0 .52-.107 1.08-.32.56-.227 1.02-.447 1.38-.66l1.96-1.24.02.26c-1.4.933-2.447 1.527-3.14 1.78-.68.253-1.134.38-1.36.38-.374 0-.56-.233-.56-.7 0-.627.226-1.253.68-1.88.453-.627.98-1.14 1.58-1.54.613-.4 1.2-.727 1.76-.98.573-.253 1.006-.38 1.3-.38.293 0 .44.1.44.3 0 .493-.587 1.093-1.76 1.8-1.16.707-2.127 1.173-2.9 1.4-.454.653-.68 1.16-.68 1.52Zm10.695-2.56.16.18a55.37 55.37 0 0 0-1.5.94c-.386.253-.68.38-.88.38-.293 0-.44-.127-.44-.38 0-.187.1-.553.3-1.1.213-.56.36-.953.44-1.18l-.06-.06c-.053 0-.113.027-.18.08-1.346 1.08-2.22 1.807-2.62 2.18-.386.373-.767.773-1.14 1.2-.36.427-.56.66-.6.7a.6.6 0 0 1-.06.08c-.04.04-.173.06-.4.06-.24 0-.36-.02-.36-.06.027-.04.194-.227.5-.56a47.124 47.124 0 0 0 2.02-2.34l-.58.34a42.62 42.62 0 0 0-1.34.84l-.08-.22 1.26-.8c.454-.293.84-.6 1.16-.92.334-.32.56-.58.68-.78.12-.2.227-.367.32-.5s.18-.2.26-.2c.08 0 .207.047.38.14 0 .133-.107.367-.32.7-.213.333-.427.633-.64.9l-.32.38c0 .027.007.04.02.04.04 0 .087-.02.14-.06.053-.053.273-.24.66-.56.4-.333.747-.613 1.04-.84.294-.24.627-.467 1-.68.387-.213.667-.32.84-.32.174 0 .26.04.26.12 0 .107-.326.333-.98.68-.146.08-.373.467-.68 1.16-.293.68-.44 1.18-.44 1.5 0 .067.06.1.18.1.134 0 .387-.12.76-.36l1.24-.78Zm4.918-5.1c-.573.813-1.5 1.673-2.78 2.58-1.267.907-2.32 1.36-3.16 1.36-.227 0-.393-.06-.5-.18-.094-.133-.14-.347-.14-.64 0-.733.287-1.653.86-2.76A18.456 18.456 0 0 1 21.96 7a12.847 12.847 0 0 1 3.22-2.74c1.267-.773 2.493-1.16 3.68-1.16.813 0 1.22.5 1.22 1.5 0 .667-.347 1.673-1.04 3.02a37.604 37.604 0 0 1-2.3 3.88l-2.3 3.36c-.694 1-1.04 1.527-1.04 1.58.32-.373 1.08-1.167 2.28-2.38a155.238 155.238 0 0 1 3.22-3.14c.947-.88 2.047-1.853 3.3-2.92a53.499 53.499 0 0 1 3.52-2.78 21.393 21.393 0 0 1 3.26-1.94c1.093-.533 2.013-.8 2.76-.8.253 0 .38.053.38.16 0 .133-.373.44-1.12.92-.733.467-1.127.7-1.18.7-.053 0-.08-.02-.08-.06 0-.04.047-.113.14-.22.106-.107.16-.173.16-.2 0-.027-.02-.04-.06-.04-.814 0-2.34.787-4.58 2.36s-4.674 3.56-7.3 5.96c-2.613 2.4-4.807 4.673-6.58 6.82-.28.347-.727.52-1.34.52-.107 0-.16-.02-.16-.06 0-.04.08-.133.24-.28.16-.147.607-.7 1.34-1.66.733-.96 1.207-1.613 1.42-1.96.226-.36.746-1.133 1.56-2.32A126.439 126.439 0 0 0 26.66 10a33.69 33.69 0 0 0 1.8-3.14c.627-1.2 1.007-2.173 1.14-2.92-.027-.453-.287-.68-.78-.68-.72 0-1.647.367-2.78 1.1a20.106 20.106 0 0 0-3.2 2.62 18.852 18.852 0 0 0-2.62 3.26c-.733 1.147-1.1 2.093-1.1 2.84 0 .387.167.58.5.58.787 0 1.693-.373 2.72-1.12 1.04-.76 2.026-1.687 2.96-2.78.067-.08.127-.12.18-.12.053 0 .08.027.08.08 0 .053-.034.12-.1.2Zm6.324 3.58v-.02c-.266.133-.56.453-.88.96-.32.493-.506.92-.56 1.28.96-.987 1.44-1.727 1.44-2.22Zm-4.26 4.18c.507 0 1.327-.533 2.46-1.6v-.1c0-.413.2-.92.6-1.52.414-.613.787-1.007 1.12-1.18a.216.216 0 0 0-.16-.06c-.493 0-1.313.567-2.46 1.7-1.133 1.133-1.7 2.013-1.7 2.64 0 .08.047.12.14.12Zm-.62-.28c0-1 .574-1.993 1.72-2.98 1.16-1 2.12-1.5 2.88-1.5.374 0 .56.167.56.5 0 .947-.506 1.893-1.52 2.84.08.027.16.04.24.04.374 0 .914-.233 1.62-.7l.1.2c-.853.573-1.5.86-1.94.86-.173 0-.3-.033-.38-.1a7.71 7.71 0 0 1-1.64 1.04c-.573.267-.993.4-1.26.4-.253 0-.38-.2-.38-.6Zm5.248-1.36-.06-.24.66-.42c1-.667 1.627-1.133 1.88-1.4.253-.28.407-.453.46-.52.347-.44.54-.687.58-.74.16.053.24.213.24.48-.267.387-.627.853-1.08 1.4-.453.533-.827.98-1.12 1.34-.293.347-.44.547-.44.6 0 .053.007.08.02.08.027 0 .127-.067.3-.2.187-.147.68-.5 1.48-1.06 1.613-1.12 2.64-1.827 3.08-2.12.44-.307.72-.46.84-.46.133 0 .2.133.2.4 0 .253-.2.64-.6 1.16-.4.52-.84 1-1.32 1.44-1.28 1.173-1.92 1.82-1.92 1.94 0 .013.027.02.08.02.16 0 1.06-.527 2.7-1.58l.82-.54.02.26c-2.147 1.427-3.453 2.14-3.92 2.14-.08 0-.12-.04-.12-.12 0-.493.307-1.073.92-1.74a23.635 23.635 0 0 1 1.86-1.82c.613-.547.92-.907.92-1.08 0-.027-.013-.04-.04-.04-.387.187-1.287.78-2.7 1.78-1.4.987-2.22 1.567-2.46 1.74-.627.467-.96.713-1 .74a1.23 1.23 0 0 0-.2.2c-.24.253-.46.38-.66.38-.32-.027-.487-.047-.5-.06-.013-.013-.02-.027-.02-.04 0-.013.113-.14.34-.38l.64-.68a45.444 45.444 0 0 0 1.46-1.68l-1.34.82ZM43.21 17.9c-.307 0-.487-.08-.54-.24 0-.173.573-.947 1.72-2.32a432.623 432.623 0 0 1 3.78-4.46 62.604 62.604 0 0 0 3.78-4.9c1.147-1.667 1.72-2.84 1.72-3.52 0-.427-.22-.64-.66-.64-.72 0-1.48.193-2.28.58-.8.373-1.553.867-2.26 1.48a20.59 20.59 0 0 0-2.02 2.02 16.847 16.847 0 0 0-1.66 2.22c-1.027 1.6-1.54 2.767-1.54 3.5 0 .387.16.58.48.58.44 0 1.153-.373 2.14-1.12a26.88 26.88 0 0 0 2.62-2.24l1.14-1.1c.027-.027.067-.04.12-.04.067 0 .1.02.1.06l-.04.08-.5.5c-.2.213-.587.587-1.16 1.12a40.36 40.36 0 0 1-1.62 1.4c-.493.4-1.027.767-1.6 1.1-.573.333-1.027.5-1.36.5-.48 0-.72-.287-.72-.86 0-.587.167-1.293.5-2.12.347-.84.84-1.713 1.48-2.62.653-.907 1.38-1.76 2.18-2.56.813-.8 1.747-1.46 2.8-1.98 1.053-.52 2.1-.78 3.14-.78.267 0 .527.1.78.3.253.187.38.48.38.88 0 .387-.147.9-.44 1.54-.28.64-.707 1.387-1.28 2.24-.573.853-1.107 1.627-1.6 2.32-.48.68-1.127 1.513-1.94 2.5-.8.987-1.36 1.673-1.68 2.06-.32.373-.793.933-1.42 1.68.013.013.073-.02.18-.1 5.68-5.147 8.887-8.047 9.62-8.7.733-.653 1.127-1.013 1.18-1.08l.14-.14a.543.543 0 0 1 .4-.16c.173 0 .26.08.26.24 0 .4-.587 1.413-1.76 3.04-1.16 1.627-2.32 3.18-3.48 4.66-1.16 1.48-1.74 2.247-1.74 2.3l.02.02c.813-.707 2.48-2.233 5-4.58 2.533-2.36 4.74-4.393 6.62-6.1 1.893-1.707 2.947-2.56 3.16-2.56.147 0 .22.093.22.28 0 .36-.307 1-.92 1.92-.6.92-1.68 2.367-3.24 4.34l-3.24 3.88c-4.613 5.507-6.92 8.687-6.92 9.54 0 .053.04.08.12.08.093 0 .427-.153 1-.46.587-.293.993-.54 1.22-.74.227-.2.36-.3.4-.3.04 0 .06.027.06.08 0 .067-.013.113-.04.14-.147.187-.6.493-1.36.92-.747.427-1.22.64-1.42.64-.2 0-.3-.087-.3-.26 0-.84.713-2.32 2.14-4.44 2.24-3.347 4.953-6.78 8.14-10.3.4-.453 1.14-1.347 2.22-2.68 1.08-1.333 1.62-2.053 1.62-2.16 0-.027-.007-.04-.02-.04-.08 0-2.547 2.227-7.4 6.68-4.84 4.453-7.973 7.36-9.4 8.72-.16.16-.313.24-.46.24-.387 0-.58-.047-.58-.14 0-.093.093-.253.28-.48a461.62 461.62 0 0 1 3-3.68c4.267-5.213 6.4-7.947 6.4-8.2l-.02-.02c-.12.053-1.867 1.613-5.24 4.68-4.933 4.453-7.733 7.04-8.4 7.76Z" fill="#E6E6E6"/></svg>
